build/img/logo.svg

<svg width="290" height="40" viewBox="0 0 290 40" fill="none" xmlns="http://www.w3.org/2000/svg">
<path d="M290 0H0V40H290V0Z" fill="#A09F9F"/>
<path d="M160.496 0H0V40H160.496V0Z" fill="#771213"/>
<path d="M20.465 19.58C20.89 19.676 21.2885 19.82 21.6604 20.012C21.9792 20.188 22.2891 20.432 22.5902 20.744C22.8901 21.056 23.1126 21.468 23.2543 21.981L24.184 25.821C24.3611 26.541 24.7153 26.901 25.2466 26.901C25.3529 26.901 25.4769 26.885 25.6186 26.852C25.6883 26.836 25.7425 26.813 25.7779 26.78H25.9108L26.1764 28.341C26.0702 28.389 25.9373 28.429 25.7779 28.461C25.4769 28.541 25.0784 28.581 24.5825 28.581C23.7147 28.581 23.0329 28.36 22.537 27.921C22.0411 27.482 21.7047 26.901 21.5276 26.181L20.5978 22.341C20.4561 21.797 20.1905 21.361 19.8008 21.032C19.4101 20.705 18.8788 20.541 18.2069 20.541H16.3474V28.341H13.6909V11.541H16.3474V18.861H17.9413C18.6851 18.861 19.2651 18.697 19.6813 18.369C20.0975 18.041 20.3587 17.605 20.465 17.061L21.1291 13.701C21.2708 12.981 21.5984 12.401 22.112 11.961C22.6256 11.521 23.3163 11.301 24.184 11.301C24.4497 11.301 24.6799 11.313 24.8747 11.337C25.0695 11.361 25.2378 11.389 25.3795 11.421C25.5389 11.469 25.6717 11.509 25.7779 11.541L25.5123 13.101H25.3795C25.344 13.085 25.2898 13.069 25.2201 13.053C25.1669 13.037 25.1094 13.021 25.0474 13.005C24.9854 12.989 24.919 12.981 24.8482 12.981C24.5825 12.981 24.3567 13.069 24.1708 13.245C23.9848 13.421 23.8564 13.693 23.7856 14.061L23.1215 17.421C23.0318 17.901 22.8425 18.285 22.5503 18.573C22.2581 18.861 21.9615 19.077 21.6604 19.221C21.3062 19.396 20.9077 19.516 20.465 19.58Z" fill="white"/>
<path d="M33.774 20.3C33.8437 20.46 33.9157 20.64 33.9865 20.84C34.0562 21.04 34.1193 21.236 34.1725 21.428L34.3584 22.1H34.4647C34.5001 21.876 34.5532 21.653 34.6241 21.428C34.6772 21.252 34.7348 21.061 34.7967 20.852C34.8587 20.644 34.9163 20.46 34.9694 20.3L38.1572 11.54H40.8137L35.8992 25.34C35.7398 25.788 35.514 26.216 35.2218 26.624C34.9296 27.031 34.5842 27.389 34.1857 27.691C33.7873 27.996 33.339 28.24 32.8442 28.423C32.3494 28.606 31.817 28.699 31.2503 28.699C30.8076 28.699 30.418 28.663 30.0815 28.591C29.745 28.519 29.4528 28.435 29.2048 28.339C28.9215 28.243 28.6735 28.123 28.461 27.98L29.1251 26.419H29.3908C29.5136 26.547 29.6653 26.651 29.8424 26.732C29.9841 26.812 30.1479 26.879 30.3338 26.935C30.5198 26.992 30.7367 27.019 30.9847 27.019C31.516 27.019 31.9809 26.859 32.3793 26.54C32.7778 26.22 33.0656 25.82 33.2427 25.34L33.774 23.901H32.5786L27.1062 11.541H29.8955L33.774 20.3Z" fill="white"/>
<path d="M48.5175 18.26C50.7125 18.26 52.3462 18.712 53.4188 19.616C54.4902 20.52 55.0259 21.748 55.0259 23.3C55.0259 24.868 54.4902 26.1 53.4188 26.996C52.3473 27.892 50.7136 28.34 48.5175 28.34H43.4702V11.54H53.8305V13.22H46.1267V18.26H48.5175ZM46.1267 19.94V26.66H48.5175C49.7927 26.66 50.7534 26.372 51.3998 25.796C52.0451 25.22 52.3695 24.389 52.3695 23.3C52.3695 22.212 52.0462 21.38 51.3998 20.804C50.7534 20.228 49.7927 19.94 48.5175 19.94H46.1267Z" fill="white"/>
<path d="M68.3072 28.34L66.8461 24.02H60.7362L59.2751 28.34H56.6187L62.0645 11.54H65.5179L70.9637 28.34H68.3072ZM61.2686 22.34H66.3159L64.1908 15.74C64.1199 15.564 64.0668 15.376 64.0314 15.176C63.9959 14.976 63.9605 14.788 63.9251 14.612C63.8897 14.42 63.8631 14.237 63.8454 14.06H63.7391C63.7214 14.252 63.6949 14.444 63.6595 14.636C63.624 14.812 63.5842 14.996 63.5399 15.188C63.4956 15.38 63.4469 15.564 63.3938 15.74L61.2686 22.34Z" fill="white"/>
<path d="M85.7072 11.54V28.34H83.0518V20.66H76.4106V28.34H73.7542V11.54H76.4106V18.98H83.0518V11.54H85.7072Z" fill="white"/>
<path d="M89.5591 19.94C89.5591 18.388 89.7185 17.064 90.0372 15.968C90.356 14.872 90.8076 13.976 91.3932 13.28C91.9765 12.584 92.676 12.08 93.4918 11.768C94.3053 11.456 95.2096 11.3 96.2014 11.3C96.9452 11.3 97.6005 11.368 98.1661 11.504C98.7328 11.64 99.2198 11.796 99.6272 11.972C100.088 12.164 100.494 12.38 100.849 12.62L99.9194 14.06H99.6537C99.3704 13.868 99.0704 13.692 98.7516 13.532C98.4672 13.404 98.1318 13.28 97.7422 13.16C97.3514 13.04 96.9286 12.98 96.4682 12.98C95.8649 12.98 95.3071 13.096 94.7935 13.328C94.2799 13.56 93.8327 13.944 93.4519 14.48C93.0712 15.016 92.7701 15.732 92.5487 16.628C92.3285 17.524 92.2178 18.628 92.2178 19.94C92.2178 21.268 92.3285 22.376 92.5487 23.264C92.7701 24.153 93.08 24.864 93.4785 25.401C93.8781 25.936 94.3518 26.321 94.9008 26.552C95.4487 26.784 96.0597 26.901 96.7327 26.901C97.1932 26.901 97.6182 26.844 98.0078 26.733C98.3974 26.621 98.7328 26.501 99.0162 26.373C99.3361 26.213 99.6371 26.028 99.9194 25.821H100.185L101.115 27.26C100.761 27.516 100.353 27.74 99.8928 27.932C99.4844 28.108 98.9974 28.26 98.4317 28.388C97.8661 28.516 97.2098 28.58 96.4671 28.58C95.4033 28.58 94.4481 28.424 93.5969 28.111C92.7469 27.799 92.0208 27.296 91.4186 26.599C90.8165 25.904 90.356 25.011 90.0372 23.923C89.7185 22.835 89.5591 21.508 89.5591 19.94Z" fill="white"/>
<path d="M110.944 19.58C111.369 19.676 111.767 19.82 112.139 20.012C112.457 20.188 112.767 20.432 113.069 20.744C113.369 21.056 113.591 21.468 113.733 21.981L114.663 25.821C114.84 26.541 115.194 26.901 115.727 26.901C115.833 26.901 115.956 26.885 116.099 26.852C116.168 26.836 116.221 26.813 116.258 26.78H116.391L116.656 28.341C116.55 28.389 116.416 28.429 116.258 28.461C115.957 28.541 115.558 28.581 115.063 28.581C114.195 28.581 113.513 28.36 113.016 27.921C112.521 27.482 112.184 26.901 112.008 26.181L111.077 22.341C110.936 21.797 110.67 21.361 110.281 21.032C109.889 20.705 109.359 20.541 108.687 20.541H106.826V28.341H104.171V11.541H106.826V18.861H108.42C109.164 18.861 109.744 18.697 110.159 18.369C110.576 18.041 110.838 17.605 110.944 17.061L111.608 13.701C111.75 12.981 112.077 12.401 112.592 11.961C113.104 11.521 113.796 11.301 114.663 11.301C114.929 11.301 115.159 11.313 115.355 11.337C115.55 11.361 115.717 11.389 115.858 11.421C116.019 11.469 116.151 11.509 116.257 11.541L115.991 13.101H115.858C115.824 13.085 115.77 13.069 115.699 13.053C115.646 13.037 115.587 13.021 115.526 13.005C115.464 12.989 115.398 12.981 115.327 12.981C115.061 12.981 114.836 13.069 114.65 13.245C114.464 13.421 114.335 13.693 114.264 14.061L113.6 17.421C113.511 17.901 113.321 18.285 113.028 18.573C112.735 18.861 112.439 19.077 112.138 19.221C111.785 19.396 111.387 19.516 110.944 19.58Z" fill="white"/>
<path d="M122.367 28.34H119.711V11.54H122.367V22.22C122.367 22.397 122.361 22.604 122.352 22.844C122.344 23.084 122.33 23.309 122.314 23.516C122.296 23.772 122.278 24.02 122.259 24.26H122.367C122.437 24.02 122.517 23.772 122.606 23.516C122.694 23.309 122.783 23.084 122.872 22.844C122.96 22.604 123.057 22.397 123.164 22.22L129.008 11.54H131.663V28.34H129.008V17.66C129.008 17.484 129.012 17.28 129.021 17.048C129.031 16.816 129.045 16.588 129.061 16.364C129.079 16.124 129.095 15.876 129.114 15.62H129.008C128.938 15.876 128.857 16.124 128.769 16.364C128.68 16.588 128.587 16.816 128.49 17.048C128.393 17.28 128.3 17.484 128.211 17.66L122.367 28.34Z" fill="white"/>
<path d="M136.445 28.34V11.54H146.804V13.22H139.102V18.74H145.211V20.42H139.102V26.66H146.804V28.34H136.445Z" fill="white"/>
<path d="M186.396 11.6V28.4H183.739V20.72H177.098V28.4H174.443V11.6H177.098V19.04H183.739V11.6H186.396Z" fill="white"/>
<path d="M203.266 20C203.266 21.568 203.105 22.896 202.787 23.984C202.469 25.072 202.026 25.963 201.459 26.66C200.891 27.355 200.205 27.859 199.4 28.172C198.593 28.485 197.715 28.641 196.757 28.641C195.8 28.641 194.92 28.485 194.113 28.172C193.307 27.859 192.621 27.356 192.055 26.66C191.487 25.964 191.046 25.072 190.727 23.984C190.408 22.896 190.249 21.568 190.249 20C190.249 18.448 190.408 17.124 190.727 16.028C191.046 14.932 191.488 14.036 192.055 13.34C192.622 12.644 193.308 12.14 194.113 11.828C194.92 11.516 195.8 11.36 196.757 11.36C197.715 11.36 198.593 11.516 199.4 11.828C200.206 12.14 200.892 12.644 201.459 13.34C202.026 14.036 202.469 14.932 202.787 16.028C203.105 17.124 203.266 18.448 203.266 20ZM192.904 20C192.904 21.328 193.012 22.436 193.223 23.324C193.435 24.212 193.723 24.924 194.086 25.46C194.449 25.996 194.86 26.381 195.322 26.611C195.782 26.843 196.26 26.96 196.756 26.96C197.251 26.96 197.73 26.844 198.191 26.611C198.651 26.381 199.063 25.996 199.426 25.46C199.788 24.924 200.077 24.212 200.288 23.324C200.501 22.435 200.607 21.328 200.607 20C200.607 18.688 200.501 17.584 200.288 16.688C200.077 15.792 199.788 15.076 199.426 14.54C199.063 14.004 198.651 13.62 198.191 13.388C197.73 13.157 197.251 13.04 196.756 13.04C196.26 13.04 195.782 13.156 195.322 13.388C194.86 13.62 194.449 14.004 194.086 14.54C193.723 15.076 193.435 15.792 193.223 16.688C193.012 17.584 192.904 18.688 192.904 20Z" fill="white"/>
<path d="M214.953 19.52C215.644 19.664 216.264 19.92 216.813 20.288C217.043 20.448 217.269 20.636 217.49 20.852C217.71 21.068 217.911 21.32 218.088 21.607C218.264 21.896 218.407 22.224 218.513 22.591C218.619 22.959 218.672 23.375 218.672 23.839C218.672 24.527 218.544 25.152 218.287 25.711C218.03 26.271 217.636 26.751 217.105 27.151C216.575 27.551 215.901 27.858 215.087 28.075C214.272 28.291 213.298 28.399 212.164 28.399H207.116V11.6H212.164C213.12 11.6 213.966 11.708 214.701 11.924C215.436 12.14 216.047 12.432 216.534 12.8C217.02 13.168 217.387 13.613 217.636 14.132C217.884 14.652 218.008 15.208 218.008 15.8C218.008 16.584 217.849 17.216 217.53 17.696C217.211 18.176 216.857 18.552 216.467 18.824C216.006 19.144 215.501 19.376 214.953 19.52ZM209.773 18.8H212.164C213.173 18.8 213.957 18.552 214.515 18.056C215.073 17.56 215.352 16.889 215.352 16.04C215.352 15.191 215.073 14.52 214.515 14.024C213.957 13.528 213.173 13.28 212.164 13.28H209.773V18.8ZM209.773 20.48V26.72H212.164C213.492 26.72 214.466 26.456 215.087 25.928C215.707 25.401 216.017 24.624 216.017 23.6C216.017 22.577 215.707 21.8 215.087 21.272C214.466 20.745 213.493 20.48 212.164 20.48H209.773Z" fill="white"/>
<path d="M234.478 20C234.478 21.568 234.318 22.896 234 23.984C233.681 25.072 233.239 25.963 232.672 26.66C232.104 27.355 231.418 27.859 230.613 28.172C229.806 28.485 228.927 28.641 227.97 28.641C227.012 28.641 226.132 28.485 225.326 28.172C224.52 27.859 223.833 27.356 223.268 26.66C222.7 25.964 222.258 25.072 221.94 23.984C221.621 22.896 221.461 21.568 221.461 20C221.461 18.448 221.621 17.124 221.94 16.028C222.258 14.932 222.701 14.036 223.268 13.34C223.835 12.644 224.521 12.14 225.326 11.828C226.132 11.516 227.012 11.36 227.97 11.36C228.927 11.36 229.806 11.516 230.613 11.828C231.419 12.14 232.105 12.644 232.672 13.34C233.239 14.036 233.681 14.932 234 16.028C234.318 17.124 234.478 18.448 234.478 20ZM224.118 20C224.118 21.328 224.225 22.436 224.437 23.324C224.649 24.212 224.937 24.924 225.3 25.46C225.663 25.996 226.074 26.381 226.535 26.611C226.996 26.843 227.474 26.96 227.97 26.96C228.465 26.96 228.944 26.844 229.404 26.611C229.865 26.381 230.277 25.996 230.64 25.46C231.002 24.924 231.29 24.212 231.502 23.324C231.714 22.435 231.821 21.328 231.821 20C231.821 18.688 231.714 17.584 231.502 16.688C231.29 15.792 231.002 15.076 230.64 14.54C230.277 14.004 229.865 13.62 229.404 13.388C228.944 13.157 228.465 13.04 227.97 13.04C227.474 13.04 226.996 13.156 226.535 13.388C226.074 13.62 225.663 14.004 225.3 14.54C224.937 15.076 224.649 15.792 224.437 16.688C224.224 17.584 224.118 18.688 224.118 20Z" fill="white"/>
<path d="M237.4 20C237.4 18.448 237.56 17.124 237.879 16.028C238.197 14.932 238.649 14.036 239.233 13.34C239.818 12.644 240.517 12.14 241.332 11.828C242.146 11.516 243.05 11.36 244.042 11.36C244.785 11.36 245.441 11.428 246.006 11.564C246.573 11.7 247.06 11.856 247.467 12.032C247.928 12.224 248.335 12.44 248.689 12.68L247.76 14.12H247.495C247.211 13.928 246.911 13.752 246.592 13.592C246.308 13.464 245.971 13.34 245.582 13.22C245.193 13.1 244.768 13.04 244.307 13.04C243.705 13.04 243.147 13.156 242.634 13.388C242.12 13.62 241.673 14.004 241.292 14.54C240.911 15.076 240.61 15.792 240.389 16.688C240.168 17.584 240.057 18.688 240.057 20C240.057 21.328 240.168 22.436 240.389 23.324C240.61 24.212 240.92 24.924 241.32 25.46C241.717 25.996 242.191 26.381 242.74 26.611C243.289 26.843 243.9 26.96 244.573 26.96C245.033 26.96 245.458 26.904 245.848 26.792C246.238 26.68 246.573 26.561 246.857 26.432C247.176 26.272 247.477 26.088 247.76 25.88H248.025L248.955 27.32C248.601 27.576 248.193 27.799 247.733 27.992C247.326 28.168 246.838 28.32 246.272 28.447C245.705 28.576 245.05 28.64 244.306 28.64C243.244 28.64 242.288 28.484 241.437 28.171C240.587 27.858 239.861 27.355 239.259 26.659C238.657 25.963 238.196 25.071 237.877 23.983C237.559 22.895 237.4 21.568 237.4 20Z" fill="white"/>
<path d="M254.667 28.4V13.28H249.886V11.6H262.106V13.28H257.324V28.4H254.667Z" fill="white"/>
<path d="M267.419 28.4H264.763V11.6H267.419V22.279C267.419 22.456 267.414 22.664 267.406 22.904C267.397 23.144 267.382 23.368 267.366 23.576C267.348 23.832 267.33 24.08 267.313 24.32H267.419C267.49 24.08 267.569 23.832 267.659 23.576C267.746 23.368 267.835 23.144 267.924 22.904C268.012 22.664 268.11 22.456 268.217 22.279L274.06 11.6H276.716V28.4H274.06V17.72C274.06 17.544 274.064 17.34 274.074 17.108C274.083 16.876 274.097 16.648 274.114 16.424C274.132 16.184 274.149 15.936 274.167 15.68H274.06C273.99 15.936 273.909 16.184 273.821 16.424C273.732 16.648 273.639 16.876 273.542 17.108C273.445 17.34 273.352 17.544 273.263 17.72L267.419 28.4Z" fill="white"/>
</svg>

<svg width="290" height="40" fill="none" xmlns="http://www.w3.org/2000/svg"><path d="M290 0H0v40h290V0z" fill="#A09F9F"/><path d="M160.496 0H0v40h160.496V0z" fill="#771213"/><path d="M20.465 19.58c.425.096.823.24 1.195.432.32.176.63.42.93.732.3.312.523.724.664 1.237l.93 3.84c.177.72.531 1.08 1.063 1.08.106 0 .23-.016.372-.049a.346.346 0 00.159-.072h.133l.265 1.561a1.874 1.874 0 01-.398.12c-.301.08-.7.12-1.195.12-.868 0-1.55-.221-2.046-.66-.496-.439-.832-1.02-1.01-1.74l-.93-3.84c-.14-.544-.407-.98-.796-1.309-.39-.327-.922-.491-1.594-.491h-1.86v7.8h-2.656v-16.8h2.656v7.32h1.594c.744 0 1.324-.164 1.74-.492.416-.328.678-.764.784-1.308l.664-3.36c.142-.72.47-1.3.983-1.74.514-.44 1.204-.66 2.072-.66a5.23 5.23 0 011.195.12l.399.12-.266 1.56h-.133a.918.918 0 00-.159-.048 4.54 4.54 0 00-.173-.048.95.95 0 00-.877.24c-.185.176-.314.448-.384.816l-.665 3.36c-.09.48-.278.864-.57 1.152a3.334 3.334 0 01-.89.648 3.962 3.962 0 01-1.196.359zm13.309.72c.07.16.142.34.212.54s.133.396.187.588l.185.672h.107a4.64 4.64 0 01.16-.672l.172-.576c.062-.208.12-.392.172-.552l3.188-8.76h2.657l-4.915 13.8a5.185 5.185 0 01-1.713 2.351 5.107 5.107 0 01-1.342.732 4.564 4.564 0 01-1.594.276 5.63 5.63 0 01-2.045-.36 3.12 3.12 0 01-.744-.359l.664-1.561h.266c.123.128.274.232.451.313a2.23 2.23 0 001.142.287c.532 0 .997-.16 1.395-.479.399-.32.687-.72.864-1.2l.531-1.439h-1.195l-5.473-12.36h2.79l3.878 8.759zm14.743-2.04c2.195 0 3.83.452 4.902 1.356 1.071.904 1.607 2.132 1.607 3.684 0 1.568-.536 2.8-1.607 3.696-1.072.896-2.705 1.344-4.901 1.344H43.47v-16.8h10.36v1.68h-7.703v5.04h2.39zm-2.39 1.68v6.72h2.39c1.276 0 2.236-.288 2.883-.864.645-.576.97-1.407.97-2.496 0-1.088-.324-1.92-.97-2.496-.647-.576-1.607-.864-2.883-.864h-2.39zm22.18 8.4l-1.46-4.32h-6.11l-1.462 4.32H56.62l5.446-16.8h3.453l5.446 16.8h-2.657zm-7.038-6h5.047l-2.125-6.6a2.82 2.82 0 01-.16-.564c-.035-.2-.07-.388-.106-.564a6.743 6.743 0 01-.08-.552h-.106a6.431 6.431 0 01-.08.576c-.035.176-.075.36-.12.552a8.625 8.625 0 01-.145.552l-2.125 6.6zm24.438-10.8v16.8h-2.655v-7.68H76.41v7.68h-2.657v-16.8h2.657v7.44h6.64v-7.44h2.656zm3.853 8.4c0-1.552.159-2.876.477-3.972.319-1.096.77-1.992 1.356-2.688a5.067 5.067 0 012.099-1.512c.813-.312 1.718-.468 2.71-.468.743 0 1.398.068 1.964.204a9.025 9.025 0 011.461.468c.461.192.867.408 1.222.648l-.93 1.44h-.265a8.003 8.003 0 00-.902-.528 8.76 8.76 0 00-1.01-.372c-.39-.12-.813-.18-1.274-.18-.603 0-1.16.116-1.675.348-.513.232-.96.616-1.341 1.152-.38.536-.682 1.252-.903 2.148-.22.896-.331 2-.331 3.312 0 1.328.11 2.436.33 3.324.222.889.532 1.6.93 2.137.4.535.874.92 1.423 1.151a4.655 4.655 0 001.832.349c.46 0 .885-.057 1.275-.168.39-.112.725-.232 1.008-.36.32-.16.621-.345.903-.552h.266l.93 1.439a6.06 6.06 0 01-1.222.672 8.406 8.406 0 01-1.461.456c-.566.128-1.222.192-1.965.192-1.064 0-2.019-.156-2.87-.469a5.208 5.208 0 01-2.178-1.512c-.602-.695-1.063-1.588-1.382-2.676-.319-1.088-.478-2.415-.478-3.983zm21.384-.36c.425.096.823.24 1.195.432.318.176.628.42.93.732.3.312.522.724.664 1.237l.93 3.84c.177.72.531 1.08 1.064 1.08.106 0 .229-.016.372-.049a.356.356 0 00.159-.072h.133l.265 1.561c-.106.048-.24.088-.398.12-.301.08-.7.12-1.195.12-.868 0-1.55-.221-2.047-.66-.495-.439-.832-1.02-1.008-1.74l-.931-3.84c-.141-.544-.407-.98-.796-1.309-.392-.327-.922-.491-1.594-.491h-1.861v7.8h-2.655v-16.8h2.655v7.32h1.594c.744 0 1.324-.164 1.739-.492.417-.328.679-.764.785-1.308l.664-3.36c.142-.72.469-1.3.984-1.74.512-.44 1.204-.66 2.071-.66.266 0 .496.012.692.036.195.024.362.052.503.084l.399.12-.266 1.56h-.133a.84.84 0 00-.159-.048 5.019 5.019 0 00-.173-.048.948.948 0 00-.876.24c-.186.176-.315.448-.386.816l-.664 3.36c-.089.48-.279.864-.572 1.152a3.349 3.349 0 01-.89.648 3.94 3.94 0 01-1.194.359zm11.423 8.76h-2.656v-16.8h2.656v10.68c0 .177-.006.384-.015.624-.008.24-.022.465-.038.672-.018.256-.036.504-.055.744h.108c.07-.24.15-.488.239-.744.088-.207.177-.432.266-.672.088-.24.185-.447.292-.624l5.844-10.68h2.655v16.8h-2.655V17.66a15.921 15.921 0 01.053-1.296l.053-.744h-.106c-.07.256-.151.504-.239.744-.089.224-.182.452-.279.684-.097.232-.19.436-.279.612l-5.844 10.68zm14.078 0v-16.8h10.359v1.68h-7.702v5.52h6.109v1.68h-6.109v6.24h7.702v1.68h-10.359zm49.951-16.74v16.8h-2.657v-7.68h-6.641v7.68h-2.655V11.6h2.655v7.44h6.641V11.6h2.657zm16.87 8.4c0 1.568-.161 2.896-.479 3.984-.318 1.088-.761 1.979-1.328 2.676a4.937 4.937 0 01-2.059 1.512c-.807.313-1.685.469-2.643.469-.957 0-1.837-.156-2.644-.469a4.907 4.907 0 01-2.058-1.512c-.568-.696-1.009-1.588-1.328-2.676-.319-1.088-.478-2.416-.478-3.984 0-1.552.159-2.876.478-3.972.319-1.096.761-1.992 1.328-2.688a4.91 4.91 0 012.058-1.512c.807-.312 1.687-.468 2.644-.468.958 0 1.836.156 2.643.468a4.907 4.907 0 012.059 1.512c.567.696 1.01 1.592 1.328 2.688.318 1.096.479 2.42.479 3.972zm-10.362 0c0 1.328.108 2.436.319 3.324.212.888.5 1.6.863 2.136s.774.921 1.236 1.151c.46.232.938.349 1.434.349.495 0 .974-.116 1.435-.349.46-.23.872-.615 1.235-1.151.362-.536.651-1.248.862-2.136.213-.889.319-1.996.319-3.324 0-1.312-.106-2.416-.319-3.312-.211-.896-.5-1.612-.862-2.148-.363-.536-.775-.92-1.235-1.152a3.17 3.17 0 00-1.435-.348c-.496 0-.974.116-1.434.348-.462.232-.873.616-1.236 1.152-.363.536-.651 1.252-.863 2.148-.211.896-.319 2-.319 3.312zm22.049-.48c.691.144 1.311.4 1.86.768.23.16.456.348.677.564.22.216.421.468.598.755.176.289.319.617.425.984.106.368.159.784.159 1.248 0 .688-.128 1.313-.385 1.872a3.75 3.75 0 01-1.182 1.44c-.53.4-1.204.707-2.018.924-.815.216-1.789.324-2.923.324h-5.048V11.6h5.048c.956 0 1.802.108 2.537.324.735.216 1.346.508 1.833.876.486.368.853.813 1.102 1.332.248.52.372 1.076.372 1.668 0 .784-.159 1.416-.478 1.896-.319.48-.673.856-1.063 1.128-.461.32-.966.552-1.514.696zm-5.18-.72h2.391c1.009 0 1.793-.248 2.351-.744s.837-1.167.837-2.016-.279-1.52-.837-2.016c-.558-.496-1.342-.744-2.351-.744h-2.391v5.52zm0 1.68v6.24h2.391c1.328 0 2.302-.264 2.923-.792.62-.527.93-1.304.93-2.328 0-1.023-.31-1.8-.93-2.328-.621-.527-1.594-.792-2.923-.792h-2.391zm24.705-.48c0 1.568-.16 2.896-.478 3.984-.319 1.088-.761 1.979-1.328 2.676a4.937 4.937 0 01-2.059 1.512c-.807.313-1.686.469-2.643.469-.958 0-1.838-.156-2.644-.469a4.9 4.9 0 01-2.058-1.512c-.568-.696-1.01-1.588-1.328-2.676-.319-1.088-.479-2.416-.479-3.984 0-1.552.16-2.876.479-3.972.318-1.096.761-1.992 1.328-2.688a4.91 4.91 0 012.058-1.512c.806-.312 1.686-.468 2.644-.468.957 0 1.836.156 2.643.468a4.907 4.907 0 012.059 1.512c.567.696 1.009 1.592 1.328 2.688.318 1.096.478 2.42.478 3.972zm-10.36 0c0 1.328.107 2.436.319 3.324.212.888.5 1.6.863 2.136s.774.921 1.235 1.151c.461.232.939.349 1.435.349.495 0 .974-.116 1.434-.349.461-.23.873-.615 1.236-1.151.362-.536.65-1.248.862-2.136.212-.889.319-1.996.319-3.324 0-1.312-.107-2.416-.319-3.312-.212-.896-.5-1.612-.862-2.148-.363-.536-.775-.92-1.236-1.152a3.162 3.162 0 00-1.434-.348c-.496 0-.974.116-1.435.348-.461.232-.872.616-1.235 1.152-.363.536-.651 1.252-.863 2.148-.213.896-.319 2-.319 3.312zm13.282 0c0-1.552.16-2.876.479-3.972.318-1.096.77-1.992 1.354-2.688a5.084 5.084 0 012.099-1.512c.814-.312 1.718-.468 2.71-.468.743 0 1.399.068 1.964.204a9.002 9.002 0 011.461.468c.461.192.868.408 1.222.648l-.929 1.44h-.265a8.06 8.06 0 00-.903-.528 8.786 8.786 0 00-1.01-.372 4.308 4.308 0 00-1.275-.18c-.602 0-1.16.116-1.673.348-.514.232-.961.616-1.342 1.152-.381.536-.682 1.252-.903 2.148-.221.896-.332 2-.332 3.312 0 1.328.111 2.436.332 3.324.221.888.531 1.6.931 2.136.397.536.871.921 1.42 1.151.549.232 1.16.349 1.833.349.46 0 .885-.056 1.275-.168.39-.112.725-.231 1.009-.36.319-.16.62-.344.903-.552h.265l.93 1.44a6.113 6.113 0 01-1.222.672 8.278 8.278 0 01-1.461.455c-.567.129-1.222.193-1.966.193-1.062 0-2.018-.156-2.869-.469a5.224 5.224 0 01-2.178-1.512c-.602-.696-1.063-1.588-1.382-2.676-.318-1.088-.477-2.415-.477-3.983zm17.267 8.4V13.28h-4.781V11.6h12.22v1.68h-4.782V28.4h-2.657zm12.752 0h-2.656V11.6h2.656v10.679a16.975 16.975 0 01-.053 1.297l-.053.744h.106c.071-.24.15-.488.24-.744.087-.208.176-.432.265-.672.088-.24.186-.448.293-.625L274.06 11.6h2.656v16.8h-2.656V17.72a18.512 18.512 0 01.054-1.296l.053-.744h-.107c-.07.256-.151.504-.239.744-.089.224-.182.452-.279.684-.097.232-.19.436-.279.612l-5.844 10.68z" fill="#fff"/></svg>
